X: 1
T: Chamonix
C: Keith Murphy
R: jig
Z: 2017 John Chambers <jc:trillian.mit.edu>
S: handout at Roaring Jelly practice
B: Keith Murphy "Black Isle Music II" p.8 2012
M: 6/8
L: 1/8
K: G
|:\
"D7"ABc d2d | "D7"ABc def | "G"g2d dcB | BcB BAG |\
"D7"ABc d2d | "D7"ABc def | "G"g2b "D7"agf | "G"gdB [1 GAB :|2 G3 ||
|:\
"G"G,A,B, DEG | BdB BAG | "C"c2B "(D)"AGA | "G"BGE "D7"DB,A, |\
"G"G,A,B, DEG | BdB BAG | "C"c2B "Am"AGA | "D7"BGF [1 "G"GDB, :|2 "G"G3 |]
